X: 2
T: The Clumsy Lover
R: reel
M: 4/4
L: 1/8
K: Dmix
|:AG | FAAF BAGF | GBBG cBAG | FAAF BAGF | GE E2 GFED |FAAF BAGF | GBBG cBAG | FAAF GE E2 | FD D2 D3A :|||:FAAd dAFA | GBBd dBAG | FAAd dAFA | GE E2 GFED |FAAd dAFA | GBBd dBAG | FAAF GE E2 | FD D2 D3A :|||:FFdF FdFd | GGdG GdGd | FFdF FdFd | EdFd GdEd |FFdF FdFd | GGdG GdGd | FAAF GE E2 | FD D2 D3A :||


Tune 16	Setting 29449

